svg/color/btc.svg

<svg width="64" height="65" viewBox="0 0 64 65" fill="none" xmlns="http://www.w3.org/2000/svg">
<rect y="0.303711" width="64" height="64" rx="32" fill="#F7931A"/>
<rect x="0.5" y="0.803711" width="63" height="63" rx="31.5" stroke="#070B14" stroke-opacity="0.15"/>
<path d="M46.1068 27.7445C46.7438 23.486 43.5016 21.1969 39.0683 19.6699L40.5065 13.9014L36.995 13.0264L35.5949 18.643C34.6718 18.4128 33.7238 18.1958 32.7815 17.9808L34.1918 12.3271L30.6825 11.4521L29.2435 17.2187C28.4796 17.0448 27.7292 16.8729 27.0013 16.6918L27.0054 16.6736L22.163 15.4644L21.2289 19.2149C21.2289 19.2149 23.8341 19.8121 23.7792 19.8488C25.2011 20.2037 25.4583 21.145 25.4156 21.8911C24.1015 27.1625 22.79 32.422 21.4749 37.6941C21.3011 38.1262 20.86 38.7745 19.8659 38.5283C19.9011 38.5793 17.3137 37.8914 17.3137 37.8914L15.5703 41.9109L20.1399 43.05C20.99 43.2632 21.8231 43.4863 22.6435 43.696L21.1904 49.5307L24.6978 50.4057L26.1368 44.6329C27.095 44.8931 28.0249 45.133 28.9352 45.3592L27.501 51.1047L31.0127 51.9797L32.4656 46.1559C38.4534 47.2891 42.9557 46.8323 44.8508 41.4163C46.3779 37.0558 44.7748 34.5407 41.6247 32.9005C43.9191 32.3714 45.6473 30.8623 46.1081 27.745L46.107 27.7442L46.1068 27.7445ZM38.0839 38.9947C36.9988 43.3552 29.657 40.9981 27.2767 40.407L29.205 32.677C31.5851 33.2712 39.2179 34.4472 38.0839 38.9947ZM39.1699 27.6814C38.18 31.6477 32.0694 29.6326 30.0872 29.1385L31.8354 22.1279C33.8176 22.622 40.2012 23.5442 39.1702 27.6814H39.1699Z" fill="white"/>
</svg>

<svg xmlns="http://www.w3.org/2000/svg" width="64" height="65" fill="none" viewBox="0 0 64 65"><rect width="64" height="64" y=".304" fill="#F7931A" rx="32"/><rect width="63" height="63" x=".5" y=".804" stroke="#070B14" stroke-opacity=".15" rx="31.5"/><path fill="#fff" d="M46.107 27.745c.637-4.259-2.605-6.548-7.039-8.075l1.439-5.769-3.512-.875-1.4 5.617c-.923-.23-1.871-.447-2.813-.662l1.41-5.654-3.51-.875-1.438 5.767A116 116 0 0 1 27 16.692l.004-.018-4.842-1.21-.934 3.75s2.605.598 2.55.635c1.422.355 1.68 1.296 1.637 2.042l-3.941 15.803c-.174.432-.615 1.08-1.61.834.036.051-2.551-.637-2.551-.637l-1.744 4.02 4.57 1.139c.85.213 1.683.436 2.503.646l-1.453 5.835 3.508.875 1.439-5.773c.958.26 1.888.5 2.798.726L27.5 51.105l3.512.875 1.453-5.824c5.987 1.133 10.49.676 12.385-4.74 1.527-4.36-.076-6.875-3.226-8.515 2.294-.53 4.022-2.039 4.483-5.156m-8.023 11.25c-1.085 4.36-8.427 2.003-10.807 1.412l1.928-7.73c2.38.594 10.013 1.77 8.879 6.318M39.17 27.68c-.99 3.967-7.1 1.952-9.083 1.457l1.748-7.01c1.983.494 8.366 1.416 7.335 5.553"/></svg>
